X:1
T:Song of Mary
T:Tune: William Boyd, 1868 Text under copyright; for copyrighted material see Psalter Hymnal 212
T:LM PENTECOST www.hymnary.org/text/my_spirit_glorifies_the_lord_in_god_the
T:Song of Mary
T:This hymn is in the public domain. You may freely use this score for personal and congregational worship. If you reproduce the score, please credit Hymnary.org as the source. 
T:This hymn is in the public domain. You may freely use this score for personal and congregational worship. If you reproduce the score, please credit Hymnary.org as the source. 
Z:This hymn is in the public domain. You may freely use this score for personal and congregational worship. If you reproduce the score, please credit Hymnary.org as the source.
%%score ( 1 2 ) ( 3 4 )
L:1/8
M:3/4
K:F
V:1 treble nm="SOPRANO ALTO" snm="S. A."
V:2 treble 
V:3 bass nm="TENOR BASS" snm="T. B."
V:4 bass 
V:1
 A2 A2 A2 | A4 A2 | G4 F2 | B6 | A2 A2 A2 | A4 G2 | G4 F2 | G6 | A2 A2 A2 | A4 A2 |1 G4 A2 | B6 | %12
 G2 G2 G2 | A4 F2 | F4 E2 | F6 |] %16
V:2
 C2 C2 C2 | C4 F2 | E4 F2 | E6 | F2 F2 E2 | D4 D2 | D4 =B,2 | C6 | C2 C2 ^C2 | D4 D2 |1 D4 ^F2 | %11
 G6 | E2 E2 E2 | (F2 E2) D2 | C4 C2 | C6 |] %16
V:3
 F,2 F,2 F,2 | (F,2 A,2) C2 | C4 C2 | C6 | C2 C2 C2 | C4 B,2 | G,4 G,2 | E,6 | F,2 A,2 G,2 | %9
 F,4 ^F,2 |1 G,4 D2 | D6 | C2 C2 C2 | C4 B,2 | (B,2 A,2) G,2 | A,6 |] %16
V:4
 F,2 F,2 F,2 | F,4 F,2 | B,4 A,2 | G,6 | F,2 F,2 F,2 | B,,4 B,,2 | B,,4 D,2 | C,6 | F,2 F,2 E,2 | %9
 D,4 C,2 |1 B,,4 A,,2 | G,,6 | C,2 C,2 C,2 | A,,4 B,,2 | C,4 C,2 | F,,6 |] %16

